X:1
T:Title
%%score ( 1 2 ) ( 3 4 )
L:1/8
Q:1/4=90
M:9/8
K:Db
V:1 treble nm="Strings 1, SOPRANO ALTO"
V:2 treble 
V:3 bass nm="Strings 1, TENOR BASS"
V:4 bass 
V:1
 z3 z3 [FA][GB][DF] | [FA]3- [FA]2 [Fd] [Af][Ge][Fd] | [FA]3 [DF]3 [EG][=DF][EG] | %3
w: 1.~Walk ing~ through~|life's~ * dark,~ shad * y~|val ley,~ Walk ing~ with~|
 [CE]3- [CE]2 [CB] [GB][FA][EG] | [DF]6 [FA][GB][DF] | [FA]3- [FA]2 [Fd] [Af][Ge][Fd] | %6
w: Je * sus~ day~ * by~|day;~ Cross ing~ the~|vale~ * through~ death's~ * cold~|
 [FA]3 [DF]3 [EG][=DF][EG] | [CE]3- [CE]2 [CB] [GB][FA][EG] | [DF]6 AAA | e6 .c3 | %10
w: al ley,~ He~ will~ be~|with~ * me~ all~ * the~|way.~ Keep~ me,~ O~|Lord,~ harm~|
 [FA]3 [Fd]3 AAA | e6 .c3 | [FA]6 [DF][DF][DF] | B6 z3 | [Ec]3 [EF]3 [EF][EF][EF] | d6 .d3 | %16
w: dan ger,~ Trust ing~ Thy~|grace~ here~|stay;~ I~ am~ a~|pil|stran ger,~ Help~ me~ to~|hum watch~|
 [Gc]6 [GB][FA][FA] | f6 .e3 | [FA]3 [DF]3 [FA][Fd][Af] | %19
w: pray;~ I~ am~ a~|pil and~|stran ger,~ Help~ me~ to~|
 [Ge]3 [=GB]3 [Ac][_GB][Q:1/4=67][Gc][Q:1/4=89][Q:1/4=87][Q:1/4=86][Q:1/4=85][Q:1/4=83][Q:1/4=82][Q:1/4=81][Q:1/4=79][Q:1/4=78][Q:1/4=77][Q:1/4=75][Q:1/4=74][Q:1/4=72][Q:1/4=71][Q:1/4=70][Q:1/4=68] | %20
w: hum bly~ watch~ * and~|
 [Fd]6 z3 |] %21
w: pray.~|
V:2
 x9 | x9 | x9 | x9 | x9 | x9 | x9 | x9 | x9 | GGG G2 [Gc] G-[GB][GA] | x9 | %11
w: |||||||||* * * * from~ * * and~||
 GGG G2 [Gc] G-[GB][GA] | x9 | DDD D2 [Ec] [Fd][Ec][DB] | x9 | FFF F2 [Fd] =G-[Gc][GB] | x9 | %17
w: * * * * while~ * * I~||* * * * grim~ * * a~||* * * * bly~ * * and~||
 AAA A2 [Fd] G-[Gd][GB] | x9 | x9 | x9 |] %21
w: * * * * grim~ * * a~||||
V:3
 z9 | [D,D][D,D][D,D] [D,D]2 [D,A,] [D,A,]2 [D,A,] | [D,D]3 [D,A,]3 z3 | %3
 [A,,A,][A,,A,][A,,A,] [A,,A,]2 [A,,A,] [A,,A,]2 [A,,A,] | [D,A,]6 z3 | %5
 [D,D][D,D][D,D] [D,D]2 [D,A,] [D,A,]2 [D,A,] | [D,D]3 [D,A,]3 z3 | %7
 [A,,A,][A,,A,][A,,A,] [A,,A,]2 [A,,A,] [A,,A,]2 [A,,A,] | [D,A,]6 z3 | %9
 [A,C][A,C][A,C] [A,C]2 [A,,E] ED[A,,C] | [D,D]3 [D,A,]3 z3 | %11
 [A,C][A,C][A,C] [A,C]2 [A,E] ED[A,,C] | [D,D]6 z3 | %13
 [B,,F,][B,,F,][B,,F,] [B,,F,]2 [B,,F,] [B,,B,]2 [B,,B,] | [F,=A,]3 [F,A,]3 z3 | %15
 B,B,B, B,2 B, B,E[E,E] | [A,E]6 z3 | [D,D][D,D][D,D] [D,D]2 [D,A,] [G,B,]2 [G,D] | %18
 [D,D]3 [D,A,]3 z3 | [G,B,][G,B,][G,B,] [E,E]2 [E,E] [A,E]A,A, | [D,A,]6 z3 |] %21
V:4
 x9 | x9 | x9 | x9 | x9 | x9 | x9 | x9 | x9 | z3 z3 .A,,3 | x9 | z3 z3 .A,,3 | x9 | x9 | x9 | %15
 z3 z3 .E,3 | x9 | x9 | x9 | x9 | x9 |] %21

